!!!COM: Anonim
!!!CDT: [?]
!!!OTL@@LAT: Pueri concinite
!!!TXO: Latin
!!!ODT: 
!!!GTL: Hymnbook A
!!!ARL: Opactwo św. Wojciecha, Staniątki 
!!!voices:	1
**kern
*staff1
*I"[Basso]
=1-
*oclefF3
*clefF4
!*k[b-]
*met(c|)
*M2/1
1r
2r
2G
=2
1.F
2F
=3
2D
1G
2F
=4
0G
=5
2r
2F
[1F
=6
2F]
2F
1G
=7
2G
2G
1A
=8
1G
1c
=9
2B
1G
4F
4E
=10
1F
1G
=11
1A
1G
=12
1c
1B
=14
1A
1G
=15
1c
1B
=16
1A
1G
=17
1F
[1D
=18
1D]
[1G
=19
1G]
1F
=20
0G
=21
0G
==
*-
!!title: @{OTL}, @{GTL}: @{pag}, ed. @{ENC}
!!!pag: pp. 21v-22r
!!!GTL: Hymnbook A
!!!EFL: 
!!!YEM: Creative Commons CC/BY/NC/SA 4.0
!!!ENC: Marcin Konik
!!!END: 2015-03-15
!!!EED: Marcin Konik
!!!EEV: 
!!!ONB: Encoded in vim by Marcin Konik
!!!CharacterEncoding: utf-8
!!!RDF**kern: l=long note in original notation
!!!RDF**kern: i=editorial accidental
!!muse2ps: z14jc180F
